images/blu.svg

<svg fill="none" height="24" viewBox="0 0 24 24" width="24" xmlns="http://www.w3.org/2000/svg"><circle cx="13.4809" cy="2.50041" fill="#000" r="1.57463"/><path clip-rule="evenodd" d="m4.6543 5.05469c0-1.10547.89453-2 2-2h1.71679v6.79297c1.10352-1.0586 2.56051-1.6875 4.25001-1.6875 3.6816 0 6.7285 3.25004 6.7266 7.40234 0 2.3242-.8868 4.2578-2.3086 5.5781-1.3164 1.2227-3.0879 1.9219-5.0371 1.9219-2.96489 0-5.52934-1.793-6.69536-4.3711-.36523-.8125-.59375-1.7031-.65234-2.6367zm11.0859 10.53121c0 2.2735-1.6953 4.1211-3.7871 4.1211-2.08982 0-3.78513-1.8476-3.78513-4.1211 0-1.3867.62891-2.6171 1.59375-3.3632.61918-.4766 1.37498-.7579 2.19138-.7579.9844 0 1.8828.4102 2.5567 1.0782.7558.7539 1.2304 1.8398 1.2304 3.0429z" fill="#4e91e6" fill-rule="evenodd"/></svg>

<svg width="24" height="24" viewBox="0 0 24 24" fill="none" xmlns="http://www.w3.org/2000/svg">
<circle cx="13.4809" cy="2.50041" r="1.57463" fill="black"/>
<path fill-rule="evenodd" clip-rule="evenodd" d="M4.6543 5.05469C4.6543 3.94922 5.54883 3.05469 6.6543 3.05469H8.37109V9.84766C9.47461 8.78906 10.9316 8.16016 12.6211 8.16016C16.3027 8.16016 19.3496 11.4102 19.3477 15.5625C19.3477 17.8867 18.4609 19.8203 17.0391 21.1406C15.7227 22.3633 13.9512 23.0625 12.002 23.0625C9.03711 23.0625 6.47266 21.2695 5.30664 18.6914C4.94141 17.8789 4.71289 16.9883 4.6543 16.0547V5.05469ZM15.7402 15.5859C15.7402 17.8594 14.0449 19.707 11.9531 19.707C9.86328 19.707 8.16797 17.8594 8.16797 15.5859C8.16797 14.1992 8.79688 12.9688 9.76172 12.2227C10.3809 11.7461 11.1367 11.4648 11.9531 11.4648C12.9375 11.4648 13.8359 11.875 14.5098 12.543C15.2656 13.2969 15.7402 14.3828 15.7402 15.5859Z" fill="#4E91E6"/>
</svg>
